common/resources/fonts/svg/email.svg

<?xml version="1.0" encoding="UTF-8" standalone="no"?>
<svg width="1024px" height="1024px" viewBox="0 0 1024 1024" version="1.1" xmlns="http://www.w3.org/2000/svg" xmlns:xlink="http://www.w3.org/1999/xlink">
    <!-- Generator: Sketch 3.7.1 (28215) - http://www.bohemiancoding.com/sketch -->
    <title>email</title>
    <desc>Created with Sketch.</desc>
    <defs></defs>
    <g id="Page-1" stroke="none" stroke-width="1" fill="none" fill-rule="evenodd">
        <g id="email" fill="#000000">
            <path d="M982,216.919016 L512,570.433113 L42,216.919016 C42,200.654831 47.7372473,186.769108 59.2119142,175.261431 C70.6865807,163.753753 84.532471,158 100.75,158 L923.25,158 C939.467528,158 953.31342,163.753753 964.788087,175.261431 C976.262753,186.769108 982,200.654831 982,216.919016 L982,216.919016 L982,216.919016 Z M42,322.789124 L512,676.303221 L982,322.789124 L982,806.109177 C982,822.37336 976.262753,836.259086 964.788087,847.766764 C953.31342,859.274441 939.467528,865.028193 923.25,865.028193 L100.75,865.028193 C84.532471,865.028193 70.6865807,859.274441 59.2119142,847.766764 C47.7372473,836.259086 42,822.37336 42,806.109177 L42,322.789124 L42,322.789124 Z" id="Shape"></path>
        </g>
    </g>
</svg>

<svg width="1024" height="1024" viewBox="0 0 1024 1024">
    <path d="M982 216.919L512 570.433 42 216.92c0-16.264 5.737-30.15 17.212-41.658C70.687 163.754 84.532 158 100.75 158h822.5c16.218 0 30.063 5.754 41.538 17.261C976.263 186.77 982 200.655 982 216.92zM42 322.789l470 353.514L982 322.79v483.32c0 16.264-5.737 30.15-17.212 41.658-11.475 11.507-25.32 17.261-41.538 17.261h-822.5c-16.218 0-30.063-5.754-41.538-17.261C47.737 836.259 42 822.373 42 806.109V322.79z" fill-rule="evenodd"/>
</svg>
